X:1
T:Confitebor tibi Domine - Anerio
T:#
%%score [ 1 2 3 4 ]
L:1/8
Q:1/4=140
M:4/4
K:C
V:1 treble nm="Soprano" snm="S"
V:2 treble nm="Alto" snm="A"
V:3 treble-8 nm="Tenor" snm="T"
V:4 treble nm="Bass" snm="B"
V:1
 z26 ||[K:Bb][K:treble][Q:1/4=200][Q:1/4=200][Q:1/4=200][Q:1/4=200] B8 B4 B4- | B4 B4 B4 B4 | %3
w: |In con- si\-|* li- o ju-|
 B8 B8 | z4 B4 B4 B4 | c4 A4 B8 |[M:4/2] G8 z8 | z4 G4 G4 G4 | c4 A4 (B8 | A8) G16 || %10
w: sto- rum,|et con- gre-|ga- ti- o-|ne,|et con- gre-|ga- ti- o\-|* ne.|
[M:4/2][Q:1/4=140][Q:1/4=140][Q:1/4=140][Q:1/4=140] z20 | z26 || %12
w: ||
[M:4/2][Q:1/4=200][Q:1/4=200][Q:1/4=200][Q:1/4=200] z4 B4 B6 B2 | B4 B8 B4 | B4 c4 d6 d2 | %15
w: Con- fes- si-|o et ma-|gni- fi- cen- ti-|
 d8 z4 (d4- | d2 c2 B2 A2 G4) B4- | B4 A4 B8 | z4 d4 c4 c4 | =B8 c8 | d8 d8 | d8 B8 | %22
w: a o\-|* * * * * pus|* e- ius:|ju- sti- ti-|a e-|ius ma-|net in|
 c4 A4 B4 d4- | d4 e4 c4 (d4- | d2 c2 B2 A2 G4) (B4- | B2 A2 A6 G2 G4-) | G4 ^F4 G16 || %27
w: sae- cu- lum, in|* sae- cu- lum|* * * * * sae\-||* cu- li.|
[Q:1/4=140] x26 | x28 |[Q:1/4=140][Q:1/4=140][Q:1/4=140][Q:1/4=140] z26 | %30
w: |||
[M:4/2][Q:1/4=200][Q:1/4=200][Q:1/4=200][Q:1/4=200] E8 G4 B4- | B4 B4 B4 B4- | B2 B2 G4 d8 | %33
w: Me- mor e\-|* rit in sae\-|* cu- lum te-|
 d8 d8- | d4 e4 (f2 e2 d2 c2 | d2 B2 c6 B2 B4-) | (B4 A4) B8 | z16 | z4 c4 B4 G4 | A6 A2 A4 A4 | %40
w: sta- men\-|* ti su\- * * *||* * i:||vir- tu- tem|o- pe- rum su-|
 G8 F4 f4 | d4 =e4 f8- | f4 _e4 d6 d2 | (d2 c2 B2 A2 G4) c4- | c4 B4 B4 (G4- | G4 ^F4) G16 || %46
w: o- rum an-|nun- ti- a\-|* bit po- pu-|lo, * * * * po\-|* pu- lo su\-|* * o.|
[Q:1/4=140][Q:1/4=140][Q:1/4=140][Q:1/4=140][Q:1/4=140] z28 | z28 || %48
w: ||
[M:4/2][Q:1/4=200][Q:1/4=200][Q:1/4=200][Q:1/4=200] B8 B4 B4 | B16 | d6 d2 d4 d4 | e8 B8 | %52
w: Fi- de- li-|a|o- mni- a man-|da- ta|
 (e8 d8) | (c8 B8) | z4 B8 B4 | d8 c4 c4 | c6 c2 c8 | (G6 A2 B4) G4 | (F8 G8) | z8 d8 | d8 =B8 | %61
w: e\- *|ius: *|con- fir-|ma- ta in|sae- cu- lum|sae\- * * cu-|li, *|fa-|cta in|
 c4 c4 d8 | d8 z4 B4 | c4 _A4 B8 | G4 G4 A4 F4 | (G12 ^F4) | G16 || %67
w: ve- ri- ta-|te et|ae- qui- ta-|te, et ae- qui-|ta\- *|te.|
[Q:1/4=140][Q:1/4=140][Q:1/4=140][Q:1/4=140] z26 | z26 || z28 || %70
w: |||
[Q:1/4=200][Q:1/4=200][Q:1/4=200][Q:1/4=200] G6 G2 G4 G4 | G8 G8 | B6 B2 B8 | B4 B4 B8- | %74
w: In- tel- le- ctus|bo- nus|o- mni- bus|fa- ci- en\-|
 B4 A4 A4 (c4- | c2 B2 B8 A4) | B8 z4 d4 ||[M:3/1] x24 |[M:3/1][Q:1/4=400] c12 c4 c8 | =B16 c8 | %80
w: * ti- bus e\-||um: lau-||da- ti- o|e- ius|
 A8 _B8 c8 | F8 B8 A8 | z8 (G12 A4 | B8 A12) A4 | =B24 || %85
w: ma- net in|sae- cu- lum|sae\- *|* * cu-|li.|
[Q:1/4=400][Q:1/4=400][Q:1/4=400][Q:1/4=400] E8 G8 B8 | B16 B8 | d8 c8 c8 | d16 z8 | B16 B8 | %90
w: Glo- ri- a|Pa- tri,|et Fi- li-|o,|et Spi-|
 c8 c8 A8 | (B8 A12 G4 | G16 ^F8) | G24 ||[Q:1/4=140][Q:1/4=140][Q:1/4=140][Q:1/4=140] z26 | z26 |] %96
w: ri- tu- i|san\- * *||cto:|||
V:2
 z26 ||[K:Bb][K:treble] F8 F4 G4- | G4 G4 G4 F4 | E8 D4 F4 | F4 F4 G8 | E4 F4 D8 | %6
w: |In con- si\-|* li- o ju-|sto- rum, et|con- gre- ga-|ti- o- ne,|
[M:4/2] z4 E4 E4 E4 | F4 D8 (E4- | E4 D2 C2 D8- | D8) D16 ||[M:4/2] z20 | z26 ||[M:4/2] F8 G6 G2 | %13
w: et con- gre-|ga- ti- o\-||* ne.|||Con- fes- si-|
 F4 F8 F4 | G4 A4 B6 B2 | B4 (B,2 C2 D2 E2 F4) | F4 (G6 FE D2 E2 | F8) F8 | z4 B4 _A4 F4 | G8 G8 | %20
w: o et ma-|gni- fi- cen- ti-|a o\- * * * *|pus e\- * * * *|* ius:|ju- sti- ti-|a e-|
 G8 ^F8 | ^F8 z4 D4 | E4 C4 D8 | z8 z4 F4- | F4 G8 E4 | F8 D8- | D4 D4 D16 || x26 | x28 | z26 | %30
w: ius ma-|net in|sae- cu- lum,|in|* sae- cu-|lum sae\-|* cu- li.||||
[M:4/2] z4 E8 D4 | G12 F4 | E4 B6 B2 B4 | B8 F4 G4- | G4 G4 (B6 A2 | G2 F2 F6 =E2 E2 DE) | F8 D8 | %37
w: Me- mor|e- rit|in sae- cu- lum|te- sta- men\-|* ti su\- *||* i:|
 z16 | z16 | z8 F8 | D4 E4 F8 | (G2 A2 B2 G2 A8) | z8 F8- | F4 G4 E4 F4 | D16- | D24 || z28 | %47
w: ||an-|nun- ti- a-|bit * * * *|po\-|* pu- lo su-|o.|||
 z28 ||[M:4/2] z4 B,4 D4 E4 | B,16 | B12 B4 | B4 B4 G8- | G8 B8 | _A8 F8- | F8 F4 F4 | F8 F4 F4 | %56
w: |Fi- de- li-|a|o- mni-|a man- da\-|* ta|e- ius:|* con- fir-|ma- ta in|
 =E4 E4 F4 (C2 D2 | E2 F2 G6 F2 E4- | E4) D4 E8 | z8 B8 | B4 F4 G8- | G4 A4 B8 | F4 F4 G8 | %63
w: sae- cu- lum sae\- *||* cu- li,|fa-|cta in ve\-|* ri- ta-|te et ae-|
 E4 F4 D4 D4- | D4 E4 C4 (D4- | D4 C4) D8- | D16 || z26 | z26 || z28 || D6 D2 D4 D4 | E8 D8 | %72
w: qui- ta- te, et|* ae- qui- ta\-|* * te.|||||In- tel- le- ctus|bo- nus|
 G4 G4 G8 | F4 F4 F8- | F4 F4 F8 | (G8 F8) | F12 F4 ||[M:3/1] x24 |[M:3/1] _A12 A4 A8 | G16 =E8 | %80
w: o- mni- bus|fa- ci- en\-|* ti- bus|e\- *|um: lau-||da- ti- o|e- ius|
 F8 G8 A8 | B8 F8 F8- | F8 (B12 A4 | G16) ^F8 | G24 || G12 G4 G8 | F16 F8 | B8 G8 A8 | B16 z8 | %89
w: ma- net in|sae- cu- lum|* sae\- *|* cu-|li.|Glo- ri- a|Pa- tri,|et Fi- li-|o,|
 F16 F8 | F8 G8 F8 | z8 (F12 E4 | D24) | D24 || z26 | z26 |] %96
w: et Spi-|ri- tu- i|san\- *||cto:|||
V:3
[K:Bb]"^Confitebor tibi Domine""^Felice Anerio\n(c. 1560-1614)""^Psalm 111 (Vulgate 110)" E2 G2 B16 c2 B4 || %1
w: Con- fi- tebor~tibi~Domine~in~toto~corde me- o:|
 d12 d4 | d4 d4 e4 f4 | g8 f4 d4 | d4 d4 e8 | c4 d4 B4 B4 |[M:4/2][K:treble-8] B4 B4 c8 | %7
w: In con-|si- li- o ju-|sto- rum, et|con- gre- ga-|ti- o- ne, et|con- gre- ga-|
 A4 (B6 A2 G4- | G4 A6 G2 G4- | G4 ^F4) G16 || E2 G2 B8 c2 B2 B4 | B16 c2 A2 B2 G4 || %12
w: ti- o\- * *||* * ne.|Ma- gna opera Do- mi- ni:|exquisita~in~omnes~volun- ta- tes e- ius.|
[M:4/2][K:treble-8] d8 e6 e2 | d4 d8 d4 | d4 f4 f6 f2 | f4 (f6 e2 d2 c2 | B8) B8 | c8 d8 | %18
w: Con- fes- si-|o et ma-|gni- fi- cen- ti-|a o\- * * *|* pus|e- ius:|
 z4 f4 f4 c4 | d4 (e6 d2 c4) | B8 A8 | A8 z8 | z8 f8 | g4 e4 (f2 e2 d2 c2 | B8) B8 | c4 A4 B8 | %26
w: ju- sti- ti-|a e\- * *|ius ma-|net|in|sae- cu- lum, * * *|* in|sae- cu- lum|
 A6 A2 G16 || E2 G2 B16 c2 B4 | B16 c2 A2 B2 G2 G4 | E2 G2 B16 c2 B4 |[M:4/2][K:treble-8] z16 | %31
w: sae- cu- li.|Me- mo- riam~fecit~mirabilium~su- o- rum:|misericors~et~miser- a- tor Do- mi- nus.|Es- cam dedit~timenti- bus se:||
 z4 e8 d4 | g8 f4 f4 | f6 f2 d4 =B4- | B4 c4 (d2 e2 f2 e2 | d4) c4 (d4 c2 B2) | c8 B4 f4 | %37
w: Me- mor|e- rit in|sae- cu- lum te\-|* sta- men\- * * *|* ti su\- * *|* i: vir-|
 e4 c4 d6 d2 | d4 f8 =e4 | (f6 _e2 d2 c2 d4- | d4 c2 B2 A4) d4- | d4 B4 c4 d4- | %42
w: tu- tem o- pe-|rum su- o-|rum * * * *|* * * * an\-|* nun- ti- a\-|
 d4 (G2 A2 B2 c2 d4) | B8 c4 A4- | A4 (B6 G2 B4) | (A8 G16) || E2 G2 B16 c2 B2 B4 | %47
w: * bit * * * *|po- pu- lo,|* su\- * *|o. *|Ut det illis~haereditatem gen- ti- um.|
 B16 c2 A2 B2 G2 G4 ||[M:4/2][K:treble-8] z16 | z4 g4 e4 d4 | g8 g6 g2 | g4 g4 e8- | %52
w: Opera~manuum~eius~veritas et ju- di- ci- um.||Fi- de- li-|a o- mni-|a man- da\-|
 e4 c4 (B2 c2 d2 e2 | f4) (e8 d2 c2 | d4) d8 d4 | B8 A4 A4 | G4 G4 A8 | B16 | B8 B8 | z8 f8- | %60
w: * ta e\- * * *|* ius: * *|* con- fir-|ma- ta in|sae- cu- lum|sae-|cu- li,|fa-|
 f4 d4 d8 | =e4 f4 f8 | d8 z8 | z8 z4 B4- | B4 c4 A4 (B4- | B4 A2 G2 A8) | G16 || E2 G2 B16 c2 B4 | %68
w: * cta in|ve- ri- ta-|te|et|* ae- qui- ta\-||te.|Re- dem- ptionem~misit~populo su- o:|
 B16 c2 A2 B2 G4 || E2 G2 B16 c2 B2 B4 || =B6 B2 B4 B4 | c8 =B8 | z4 e8 e4 | d8 d4 d4 | d4 c4 c8 | %75
w: mandavit~in~aeternum~testa- men- tum su- um.~|I- ni- tium~sapientiae~timor Do- mi- ni:|In- tel- le- ctus|bo- nus|o- mni-|bus fa- ci-|en- ti- bus|
 (e6 d2 c8) | B8 z4 d4 ||[M:3/1] x24 |[M:3/1][K:treble-8] e12 e4 f8 | d16 c8 | c8 e8 e8 | d24 | %82
w: e\- * *|um: lau-||da- ti- o|e- ius|ma- net in|sae-|
 c8 B8 z8 | d16 d8 | d24 || e12 e4 e8 | d16 d8 | f8 =e8 f8 | f16 z8 | d16 B8 | A8 G8 c8 | %91
w: cu- lum|sae- cu-|li.|Glo- ri- a|Pa- tri,|et Fi- li-|o,|et Spi-|ri- tu- i|
 (d12 c4 c4 B2 A2 | B8 A6 G2 A8) | G24 || E2 G2 B16 c2 B4 | B16 c2 A2 B2 G4 |] %96
w: san\- * * * *||cto:|Si- cut erat~in~principio,~et~nunc~et sem- per:|~et~in~saecula~saecu- lo- rum. A- men.|
V:4
 z26 ||[K:Bb][K:bass] B,8 B,4 G,4- | G,4 G,4 E,4 D,4 | E,8 B,,8- | B,,8 z8 | z8 G,8 | %6
w: |In con- si\-|* li- o ju-|sto- rum,||et|
[M:4/2] G,4 G,4 _A,8 | F,4 (G,6 F,2 E,4- | E,2 C,2 F,4) (D,8- | D,8 G,,16) ||[M:4/2] z20 | z26 || %12
w: con- gre- ga-|ti- o\- * *|* * * ne.||||
[M:4/2] B,,8 E,6 E,2 | B,,4 B,8 B,4 | G,4 F,4 B,6 B,2 | B,8 z4 (B,4- | B,2 A,2 G,2 F,2 E,4) G,4 | %17
w: Con- fes- si-|o et ma-|gni- fi- cen- ti-|a o\-|* * * * * pus|
 F,8 B,,8 | B,8 F,4 _A,4 | G,8 C,8 | G,8 D,8 | D,8 G,8 | E,4 F,4 B,,4 B,4- | B,4 C4 A,4 (B,4- | %24
w: e- ius:|ju- sti- ti-|a e-|ius ma-|net in|sae- cu- lum, sae\-|* cu- li, sae\-|
 B,2 A,2 G,2 F,2 E,2 F,2 G,4 | F,8 B,,6 C,2) | D,4 D,4 G,,16 || x26 | x28 | z26 |[M:4/2] z16 | %31
w: ||* cu- li.|||||
 E,8 G,4 B,4 | E,8 B,4 B,4- | B,2 B,2 B,8 G,4- | G,4 C4 B,8- | B,4 A,4 G,8 | F,8 z4 B,4 | %37
w: Me- mor e-|rit in sae\-|* cu- lum te\-|* sta- men\-|* ti su-|i: vir-|
 G,4 A,4 B,6 B,2 | B,4 A,4 G,8 | F,8 z4 D,4 | B,,4 C,4 D,8 | G,8 (F,6 E,2) | D,4 C,4 B,,4 B,4- | %43
w: tu- tem o- pe-|rum su- o-|rum an-|nun- ti- a-|bit po\- *|* pu- lo su\-|
 B,4 E,4 z4 F,4- | F,4 G,4 G,,8 | D,8 G,,16 || z28 | z28 ||[M:4/2] z16 | G,8 G,4 G,4 | G,16 | %51
w: * o, po\-|* pu- lo|su- o.||||Fi- de- li-|a|
 E,6 E,2 E,4 E,4 | C,8 G,8 | _A,8 B,8- | B,8 B,,4 B,,4 | B,,8 F,4 F,4 | C,4 C,4 F,8 | %57
w: o- mni- a man-|da- ta|e- ius:|* con- fir-|ma- ta in|sae- cu- lum|
 (E,6 F,2 G,6 A,2 | B,4) B,,4 E,8 | z8 B,8 | B,8 G,8 | C4 F,4 B,8 | B,8 E,8 | _A,4 F,4 G,8 | %64
w: sae\- * * *|* cu- li,|fa-|cta in|ve- ri- ta-|te et|ae- qui- ta-|
 G,4 E,4 F,4 D,4 | (E,8 D,8) | G,,16 || z26 | z26 || z28 || G,6 G,2 G,4 G,4 | C,8 G,8 | %72
w: te, et ae- qui-|ta\- *|te.||||In- tel- le- ctus|bo- nus|
 E,6 E,2 E,8 | B,4 B,4 B,8- | B,4 F,4 F,8 | (E,8 F,8) | B,,8 z4 B,4 ||[M:3/1] x24 | %78
w: o- mni- bus|fa- ci- en\-|* ti- bus|e\- *|um: lau-||
[M:3/1] _A,12 A,4 F,8 | G,16 C,8 | F,8 E,8 C,8 | B,,16 D,8 | F,8 (G,12 F,4 | G,8 D,12) D,4 | %84
w: da- ti- o|e- ius|ma- net in|sae- cu-|lum sae\- *|* * cu-|
 G,,24 || E,16 G,8 | B,8 B,8 B,8 | B,8 C8 F,8 | B,16 z8 | B,,16 B,,8 | F,8 =E,8 F,8 | %91
w: li.|Glo- ri-|a Pa- tri,|et Fi- li-|o,|et Spi-|ri- tu- i|
 (B,,4 C,4 D,4 E,4 F,8 | G,8 D,16) | G,24 || z26 | z26 |] %96
w: san\- * * * *||cto:|||

